X:1
T:Empire of Angels
T:Empire of Angels
T:Thomas Bergesen
T:R | MΛX
C:Thomas Bergesen
Z:R | MΛX
%%score 1 { 2 | 3 }
L:1/8
M:4/4
K:F
V:1 bass nm="Violoncelle" snm="Vlc"
V:2 treble nm="Piano" snm="Pia."
V:3 bass 
V:1
 z4 z2 (A,C) | D2 A2 (A3 G) | A4 (AcAF) | (G3 F) E4- | E6 (DF) | G2 G2 (G3 F) | G4 (GAGF) | %7
 (G3 F) E4- | E6!mp! (uDC) | D2 A2 (A3 G) | A4 (Ac)AF | (G3 F) E4- | E6 z2 | z8 | z8 | %15
 D,4!pp!!<(! A,,4 | D,4 E,4 | F,4 G,4 | A,4 C4!<)! |!f! vD2 A2 (A3 G) | A4 (AcAF) | (G3 F) E4- | %22
 E6 (uDF) | G2 G2 (G3 F) | G4 (FAGF) | (G3 F) E4- | E6 (DC) | D2 A2 (A3 G) | A4 ((((AcAF)))) | %29
 (G3 F) E4- | E6 (DF) | G2 G2 (GAGD) | F2 F2 (ED C2) | !>!D8- | D8 | z8 | z4 z2!f! ((A,,C,)) | %37
 D,2 A,2 (A,3 G,) | A,4 (A,CA,F,) | (G,3 F,) E,4- | E,6 ((D,F,)) | G,2 G,2 (G,3 F,) | %42
 G,4 (F,A,G,F,) | (G,3 F,) E,4- | E,6!f!!f! (((DC))) | D2 A2 (A3 G) | A4 (AcAF) | (G3 F) E4 | %48
 E6 (DF) | G2 G2 (GAGD) |!<(! vD4 G4!<)! |!f! !>!d4 e4 | f4 g4 | a4 b4 | c'4 d'4 | %55
 D,2 A,2 (A,3 G,) | A,4 (A,CA,F,) | (G,3 F,) E,4- | E,6 (D,F,) | G,2 G,2 (G,3 F,) | %60
 G,4 (G,A,G,F,) | (G,3 F,) E,4- | E,2!<(! !tenuto!E,2 !tenuto!E,2 !tenuto!E,2!<)! | %63
!fff! D,2 A,2 (A,3 G,) | A,4 (A,CA,F,) | (G,3 F,) E,4- | E,6 (D,F,) | G,2 G,2 (G,A,G,D,) | %68
!>(! F,2 F,2 (E,D,) G,2!>)! |!f! A,8- | A,4{A,} B,4 | A,8 | !tenuto!A,4- !tenuto!A,4 | %73
!mp! A,4 z2 uG,2 |!<(! PA,8!<)! |!>(! D,8- | D,8!>)! |!<(! A,4 B,4- | B,4 C4!<)! |!>(! E,4 F,4- | %80
 F,4 G,4!>)! |!mf!!<(! vE4 F4- | F4 A4!<)! |!>(! A,4 B,4- | B,4 C4!>)! |!<(! A4 D4 | E4 F4!<)! | %87
!f! c8- | c8 |!pp! vF,4 G,4- | G,4 z4 |!mf! F8 |"_rit."!sfz!!<(! E4 z2 (A,C)!<)! | %93
 D,2!ff! A,2 (A,3 G,) | A,4 (A,CA,F,) | (G,3 F,) E,4- | E,6 (D,F,) | G,2 G,2 (G,3 F,) | %98
 G,4 (F,A,G,F,) | (G,3 F,) E,4- | E,6 (D,C,) | D,2 A,2 (A,3 G,) | A,4 (A,CA,F,) | (G,3 F,) E,4- | %104
 E,6 (D,F,) | G,4 (G,A,G,D,) | F,2 F,2 (E,D, C,2) | [D,D]8- | [D,D]8 | z8 | z8 | %111
!ff! .vB,<B, z2 .uB,/B,.C.C.F,/ | .vB,<B, z2 .uB,/B,.C.C.C/ | .B,<B, z2 .B,/B,.C.C.C/ | %114
 !>!vA,3/2!>!B,3/2!>!D,3/2!>!E,3/2F,A, | .vB,<B, z2 z4 | z8 | %117
 !tenuto!.B,3/2!tenuto!.B,3/2!tenuto!.B,3/2!tenuto!.D,3/2 !tenuto!.E,>!tenuto!.F,- | %118
 F,!tenuto!.A,3/2!tenuto!.B,3/2 !tenuto!.C3/2!tenuto!.C3/2!tenuto!.C | C<C .C3/2C3/2C3/2C3/2 | %120
"_allarg." .C<C .C<C .C<C .C<!breath!C | .vF,<!tenuto!.F, z2 .F,<F, z2 |] %122
V:2
 z4 z2!p! (uA,C) | D2 A2 A3 G | A4 (Ac)AF | G3 F E4- | E6 (DF) | G2 G2 G3 F | G4 (GA)GF | %7
 G3 F E4- | E6!mp! (uDC) | D2 A2 A3 G | A4 (Ac)AF | G3 F E4- | E6!mf! (DF) | G4 GAGF | %14
 D2 F2 ED C2 |!p! !/!!>!F!/!D!/!!>!F!/!D!<(! !/!!>!F!/!D!/!!>!G!/!E | %16
 !/!!>!F!/!D!/!!>!F!/!D !/!!>!F!/!D!/!!>!G!/!E | !/!!>!F!/!D!/!!>!F!/!D !/!!>!F!/!D!/!!>!G!/!E | %18
 !/!!>!F!/!D!/!!>!F!/!D !/!!>!F!/!D!/!!>!G!/!E!<)! | %19
!mp! !tenuto!.F!tenuto!.D!tenuto!.F!tenuto!.D !tenuto!.F!tenuto!.D!tenuto!.F!tenuto!.D | %20
 !tenuto!.F!tenuto!.C!tenuto!.F!tenuto!.C !tenuto!.F!tenuto!.C!tenuto!.F!tenuto!.C | %21
 !tenuto!.F!tenuto!.C!tenuto!.F!tenuto!.C !tenuto!.F!tenuto!.C!tenuto!.F!tenuto!.C | %22
 !tenuto!.E!tenuto!.C!tenuto!.E!tenuto!.C !tenuto!.F!tenuto!.E!tenuto!.D!tenuto!.C | %23
 !tenuto!.D!tenuto!.B,!tenuto!.D!tenuto!.B, !tenuto!.D!tenuto!.B,!tenuto!.D!tenuto!.B, | %24
 !tenuto!.D!tenuto!.B,!tenuto!.D!tenuto!.B, !tenuto!.D!tenuto!.B,!tenuto!.D!tenuto!.B, | %25
 !tenuto!.E!tenuto!.C!tenuto!.E!tenuto!.C !tenuto!.E!tenuto!.C!tenuto!.E!tenuto!.C | %26
 z4 z2!f! (udc) | d2 f2 e3 d | A2 G2 F4 | G8- | G4 c2 (BA) | G6 A2 | B4 c4 | %33
!ff! !/!!>!FD/E/ !/!!>!F!/!D !/!!>!F!/!D!/!!>!G!/!E | %34
 !/!!>!FD/E/ !/!!>!F!/!D !/!!>!F!/!D!/!!>!G!/!E | !/!!>!FD/E/ !/!!>!F!/!D !/!!>!F!/!D!/!!>!G!/!E | %36
 !/!!>!FD/E/ !/!!>!F!/!D !/!!>!F!/!D!/!!>!G!/!E |!mf! !>!FD!>!FD !>!FD!>!FD | %38
 C/E/F/E/ C/E/F/E/ C/E/F/E/ C/E/F/E/ | C/E/F/E/ C/E/F/E/ GEGE | !>!GE/F/ !>!GE/F/ !>!GE G/F/E | %41
 (D/F/)D DD (D/F/)D DD | (D/F/)D DD (D/F/)D DD | !>!GE/F/ !>!GE/F/ !>!GE G/F/E | %44
 !>!GE/F/ !>!GE/F/ !>!GE G/F/E |!mf! !>!FD!>!FD !>!FD!>!FD | C/E/F/E/ C/E/F/E/ C/E/F/E/ C/E/F/E/ | %47
 !>!GE/F/ !>!GE/F/ !>!GE G/F/E | !>!GE/F/ !>!GE/F/ !>!GE G/F/E |!<(! G2 G2 GAGD | F2 F2 ED C2!<)! | %51
!f! !>![DA]4 e4 | f4 g4 | a4 b4 | c'4 d'4 |!f!!ff! !>!FD!>!FD !>!FD!>!FD | %56
 C/E/F/E/ C/E/F/E/ C/E/F/E/ C/E/F/E/ | C/E/F/E/ C/E/F/E/ GEGE | %58
!mf! !>!GE/F/ !>!GE/F/ !>!GE (G/F/)E | (D/F/)D DD (D/F/)D DD | (D/F/)D DD (D/F/)D DD | %61
 !>!GE/F/ !>!GE/F/ !>!GE G/F/E | !>!GE/F/ !>!GE/F/ !>!GE G/F/E |!ff! !>!fd!>!fd !>!fd g/f/e | %64
 !>!af/g/ !>!af/g/ !>!af a/g/f | !>!ge/f/ !>!ge/f/ !>!ge g/f/e | !>!ge/f/ !>!ge/f/ !>!ge g/f/e | %67
 !>!dB/c/ !>!dB/c/ !>!dB d/c/B |!>(! !>!fd/e/ !>!fd/e/ !>!ff e/d/c!>)! | %69
!f! !>!fd/e/ !>!fd/e/ !>!fd g/f/e | !>!fd/e/ !>!fd/e/ !>!fd g/f/e | !>!fd/e/ !>!fd/e/ !>!fd g/f/e | %72
 !>!fd/e/ !>!fd/e/ !>!fd g/f/e |!pp!!8va(! d''8-!8va)! |!8va(! d''8!8va)! |!8va(! c''8-!8va)! | %76
!8va(! c''8!8va)! |!8va(! a'8-!8va)! |!8va(! a'8!8va)! |!8va(! e'8-!8va)! |!8va(! e'8!8va)! | %81
 !>!FD/E/ !>!FD/E/ !>!FD G/F/E | !>!FD/E/ !>!FD/E/ !>!FD G/F/E | !>!FD/E/ !>!FD/E/ !>!FD G/F/E | %84
 !>!FD/E/ !>!FD/E/ !>!FD G/F/E | !>!FD/E/ !>!FD/E/ !>!FD G/F/E | !>!FD/E/ !>!FD/E/ !>!FD G/F/E | %87
 !>!FD/E/ !>!FD/E/ !>!FD G/F/E | !>!FD/E/ !>!FD/E/ !>!FD G/F/E |!mf!{f} vg8- |{af} g8- | g8 | %92
"_rit."!<(! !trill(!Ta8!<)! |!ff!!ff! a2 f'2 e'3 d' | a2 g2 f4 | g4 c4- | c2 c2 c'2 ((ba)) | %97
 g2 g2 g3 f | d4 d2 d2 | f4 e4- | e2 (c'd') e'2 (f'e') | d'2 f'2 e'3 d' | a2 g2 f4 | g4 c4- | %104
 c2 c2 c'2 (ba) | g2 g2 g3 f | f4 g4 | !>!fd/e/ !>!fd/e/ !>!fd g/f/e | %108
 !>!fd/e/ !>!fd/e/ !>!fd g/f/e | !>!fd/e/ !>!fd/e/ !>!fd g/f/e | !>!fd/e/ !>!fd/e/ !>!fd g/f/e | %111
!ff! .vf<f z2 .uf/f.e.d.c/ | .vf<f z2 .uf/f.g.f.e/ | .f<f z2 .f/f.e.c.a/ | %114
 va/b/c'/f/ g/a/d/e/ f/B/c/d/ !>!f/g/a/b/ | .vc'<c' z .vc'/c'.c'.b.af/ | .vg<g z .vg/g.a.f.fe/ | %117
 !tenuto!.d3/2!tenuto!.e3/2!tenuto!.f3/2!tenuto!.F3/2 !tenuto!.G>!tenuto!.A- | %118
 A!tenuto!.f3/2!tenuto!.d3/2 !tenuto!.c>C- C2 | uC8- | !breath!C8 | %121
 .vF<!tenuto!.F z2 .F<!tenuto!.F z2 |] %122
V:3
 z8 |"^pizz."!p! D,2 z2 z4 | F,2 z2 z4 | C,2 z2 z4 | z8 | G,,2 z2 z4 | B,,2 z2 z4 | C,2 z2 z4 | %8
 z8 | A,,2 z2 z4 | F,C,A,,C, z4 | C,2 z2 z4 | z8 | G,,2 z2 z4 | G,2 z2 B,2 z2 |"^arco" !>!D,,4 z4 | %16
!p!!<(! A,,6 A,,G,, | A,,8 | D,8!<)! | z8 |!mp! !tenuto!.A2 !tenuto!.A2 !tenuto!.A2 !tenuto!.A2 | %21
 !tenuto!.G2 !tenuto!.G2 !tenuto!.G2 !tenuto!.G2 | %22
 !tenuto!.E!tenuto!.C!tenuto!.E!tenuto!.C !tenuto!.F!tenuto!.E!tenuto!.D!tenuto!.C | %23
 !tenuto!.D2 !tenuto!.D2 !tenuto!.D2 !tenuto!.D2 | %24
 !tenuto!.F2 !tenuto!.F2 !tenuto!.F2 !tenuto!.F2 | %25
 !tenuto!.E!tenuto!.C!tenuto!.E!tenuto!.C !tenuto!.E!tenuto!.C!tenuto!.E!tenuto!.C | %26
!mf! !tenuto!.E!tenuto!.C!tenuto!.E!tenuto!.C !tenuto!.F!tenuto!.E!tenuto!.D!tenuto!.C | %27
 !tenuto!.F!tenuto!.D!tenuto!.F!tenuto!.D !tenuto!.F!tenuto!.D!tenuto!.F!tenuto!.D | %28
 !tenuto!.F!tenuto!.C!tenuto!.F!tenuto!.C !tenuto!.F!tenuto!.C!tenuto!.F!tenuto!.C | %29
 !tenuto!.G2 !tenuto!.G2 !tenuto!.G2 !tenuto!.G2 | %30
 !tenuto!.E!tenuto!.C!tenuto!.E!tenuto!.C !tenuto!.F!tenuto!.E!tenuto!.D!tenuto!.C | %31
 !tenuto!.D!tenuto!.B,!tenuto!.D!tenuto!.B, !tenuto!.D!tenuto!.B,!tenuto!.D!tenuto!.B, | %32
 !tenuto!.D!tenuto!.B,!tenuto!.D!tenuto!.B, !tenuto!.D!tenuto!.B,!tenuto!.D!tenuto!.B, | %33
 !>![D,D]8 |!mp! A,4 A,2 A,2 | A,4 A,2 A,2 | A,4 A,2 A,2 | A,4 A,2 A,2 | !>!F,,4 !>!F,,2 !>!F,,2 | %39
 !>!G,,4 !>!G,,2 !>!G,,2 | !>!G,,4 !>!G,,2 !>!G,,2 | !>!D,,4 !>!D,,2 !>!D,,2 | %42
 !>!D,,4 !>!D,,2 !>!D,,2 | !>!G,,4 !>!G,,2 !>!G,,2 | !>!G,,4 !>!G,,2 !>!G,,2 | %45
 !>!D,,4 !>!D,,2 !>!D,,2 | !>!F,,4 !>!F,,2 !>!F,,2 | !>!G,,4 !>!G,,2 !>!G,,2 | %48
 !>!G,,4 !>!G,,2 !>!G,,2 | !>!D,,4 !>!D,,2 !>!D,,2 | !>!F,,4 !>!F,,2 !>!F,,2 | %51
!f! F,D,/E,/ F,D, F,D, G,/F,/E, | F,D,/E,/ F,D, F,D, G,/F,/E, | F,D,/E,/ F,D, F,D, G,/F,/E, | %54
 F,D,/E,/ F,D, F,D, (G,/F,/)E, |!ff! !>!D,4 !>!D,2 !>!D,2 | !>!C,4 !>!C,2 !>!C,2 | %57
 !>!G,,4 !>!G,,2 !>!G,,2 | !>!G,,4 !>!G,,2 !>!G,,2 | !>!D,4 !>!D,2 !>!D,2 | %60
 !>!G,,4 !>!G,,2 !>!G,,2 | !>!G,,4 !>!G,,2 !>!G,,2 | !>!G,,4 !>!G,,2 !>!G,,2 | %63
 !>!F,4 !>!F,2 !>!F,2 | !>!C,4 !>!C,2 !>!C,2 | !>!G,,4 !>!G,,2 !>!G,,2 | !>!G,,4 !>!G,,2 !>!G,,2 | %67
 !>!D,4 !>!D,2 !>!D,2 |!>(! !>!G,4 G,2 G,2!>)! |!mf! !>!D,,4 D,,2 D,,2 | !>!D,,4 D,,2 D,,2 | %71
 !>!D,,4 D,,2 D,,2 | !>!D,,4!p! D,,2 D,,2 |!p! !>!FD/E/ !>!FD/E/ !>!FD G/F/E | %74
 !>!FD/E/ !>!FD/E/ !>!FD G/F/E | !>!FD/E/ !>!FD/E/ !>!FD G/F/E | !>!FD/E/ !>!FD/E/ !>!FD G/F/E | %77
 !>!FD/E/ !>!FD/E/ !>!FD G/F/E | !>!FD/E/ !>!FD/E/ !>!FD G/F/E | !>!FD/E/ !>!FD/E/ !>!FD G/F/E | %80
 !>!FD/E/ !>!FD/E/ !>!FD G/F/E | D,,8- | D,,8 | G,,8- | G,,8 | C,8- | C,8 | [C,D,F,]8- | %88
 [C,D,F,]8 |!pp! A,,8- | A,,8- | A,,8- |"_rit."!<(! A,,8!<)! | %93
!f! !/!!>!F,D,/E,/ !/!!>!F,!/!D, !/!!>!F,!/!D,!/!!>!G,!/!E, | %94
 C,/E,/F,/E,/ C,/E,/F,/E,/ C,/E,/F,/E,/ C,/E,/F,/E,/ | %95
!ff! !>!G,E,/F,/ !>!G,E,/F,/ !>!G,E, G,/F,/E, | !>!G,E,/F,/ !>!G,E,/F,/ !>!G,E, G,/F,/E, | %97
!f! (D,/F,/)D, D,D, (D,/F,/)D, D,D, | (D,/F,/)D, D,D, (D,/F,/)D, D,D, | %99
 (D,/F,/)D, D,D, (D,/F,/)D, D,D, |!ff! !>!G,E,/F,/ !>!G,E,/F,/ !>!G,E, G,/F,/E, | %101
 !>!G,E,/F,/ !>!G,E,/F,/ !>!G,E, G,/F,/E, | C,/E,/F,/E,/ C,/E,/F,/E,/ C,/E,/F,/E,/ C,/E,/F,/E,/ | %103
!ff! !>!G,E,/F,/ !>!G,E,/F,/ !>!G,E, G,/F,/E, | !>!G,E,/F,/ !>!G,E,/F,/ !>!G,E, G,/F,/E, | %105
!f! (D,/F,/)D, D,D, (D,/F,/)D, D,D, | (D,/F,/)D, D,D, (D,/F,/)D, D,D, | [D,D]8- | [D,D]8 | z8 | %110
 z8 |!ff! .vB,<B, z2 .uB,/B,.C.C.F,/ | .vB,<B, z2 .uB,/B,.C.C.C/ | .B,<B, z2 .B,/B,.C.C.C/ | %114
 !>!vA,3/2!>!B,3/2!>!D,3/2!>!E,3/2F,A, | .vC<C z .vC/C.C.B,.A,.F,/ | %116
 .vG,<G, z .vG,/G,.A,.F,.F,E,/ | %117
 !tenuto!.F,3/2!tenuto!.F,3/2!tenuto!.F,3/2!tenuto!.F,3/2 !tenuto!.F,>!tenuto!.F,- | %118
 F,!tenuto!.F,3/2!tenuto!.F,3/2 !tenuto!.F,3/2!tenuto!.F,3/2!tenuto!.F, | %119
 F,<F, .F,3/2F,3/2F,3/2F,3/2 |"_allarg." .F,<F, .F,<F, .F,<F, .F,<!breath!F, | %121
 .vF,,<!tenuto!.F,, z2 .F,,<!tenuto!.F,, z2 |] %122

